src/graphics/assets/microphone-alt-solid-dark.svg

<svg aria-hidden="true" focusable="false" data-prefix="fas" data-icon="microphone-alt" class="svg-inline--fa fa-microphone-alt fa-w-11" role="img" xmlns="http://www.w3.org/2000/svg" viewBox="0 0 352 512">
  <path fill="#21344F" d="M336 192h-16c-8.84 0-16 7.16-16 16v48c0 74.8-64.49 134.82-140.79 127.38C96.71 376.89 48 317.11 48 250.3V208c0-8.84-7.16-16-16-16H16c-8.84 0-16 7.16-16 16v40.16c0 89.64 63.97 169.55 152 181.69V464H96c-8.84 0-16 7.16-16 16v16c0 8.84 7.16 16 16 16h160c8.84 0 16-7.16 16-16v-16c0-8.84-7.16-16-16-16h-56v-33.77C285.71 418.47 352 344.9 352 256v-48c0-8.84-7.16-16-16-16zM176 352c53.02 0 96-42.98 96-96h-85.33c-5.89 0-10.67-3.58-10.67-8v-16c0-4.42 4.78-8 10.67-8H272v-32h-85.33c-5.89 0-10.67-3.58-10.67-8v-16c0-4.42 4.78-8 10.67-8H272v-32h-85.33c-5.89 0-10.67-3.58-10.67-8v-16c0-4.42 4.78-8 10.67-8H272c0-53.02-42.98-96-96-96S80 42.98 80 96v160c0 53.02 42.98 96 96 96z">
  </path>
</svg>

<svg width="352" height="512" viewBox="0 0 352 512" fill="none" xmlns="http://www.w3.org/2000/svg">
<path d="M336 192H320C311.16 192 304 199.16 304 208V256C304 330.8 239.51 390.82 163.21 383.38C96.71 376.89 48 317.11 48 250.3V208C48 199.16 40.84 192 32 192H16C7.16 192 0 199.16 0 208V248.16C0 337.8 63.97 417.71 152 429.85V464H96C87.16 464 80 471.16 80 480V496C80 504.84 87.16 512 96 512H256C264.84 512 272 504.84 272 496V480C272 471.16 264.84 464 256 464H200V430.23C285.71 418.47 352 344.9 352 256V208C352 199.16 344.84 192 336 192ZM176 352C229.02 352 272 309.02 272 256H186.67C180.78 256 176 252.42 176 248V232C176 227.58 180.78 224 186.67 224H272V192H186.67C180.78 192 176 188.42 176 184V168C176 163.58 180.78 160 186.67 160H272V128H186.67C180.78 128 176 124.42 176 120V104C176 99.58 180.78 96 186.67 96H272C272 42.98 229.02 0 176 0C122.98 0 80 42.98 80 96V256C80 309.02 122.98 352 176 352Z" fill="#222222"/>
</svg>
